!!! OTL: Literature119
!!! Chapter: 5
!!! Section: IV
!!! Page: 372
!!! Mode: 
!!! Encoder: DJB
**kern
*staff1
*I"Piano
=1-
*clefG2
*k[f#c#g#]
*A:
*M4/4
4r
4r
4r
8r
8e/
=2
2e/
4.a/
8c#/
=3
2..e/
8d#/
=4
2d/
4.b\
8B/
=5
2..d/
8d/
=6
4.c#/
8d/
4.e/
8e#/
=7
2f#/
4.cc#\
8b\
=8
[2a/
8a/L]
8g#/
8b/
8a/J
=9
2.g#/
8r
8e/
=10
!!linebreak:original
2e/
4.a/
8c#/
=11
2..e/
8d#/
=12
2d/
4.b\
8B/
=13
2..d/
8d/
=14
4.c#/
8d/
4.e/
8e#/
=15
2.f#/
4g#/
=16
[4a/
16a/LL]
16f#/
16d/
16B/JJ
4A/
8.f#/L
16e/Jk
=17
2.A/
4r
==
*-
